public/images/img-advant-5.svg

<svg width="32" height="33" viewBox="0 0 32 33" fill="none" xmlns="http://www.w3.org/2000/svg">
<g clip-path="url(#clip0_317_7093)">
<path d="M21.7144 1.58203C19.2896 1.58203 16.9641 2.54529 15.2494 4.25991C13.5348 5.97453 12.5716 8.30004 12.5716 10.7249C12.5782 11.9648 12.8266 13.1915 13.303 14.3363L11.4287 18.7249L16.3201 18.1077C17.486 18.9594 18.837 19.5228 20.2624 19.7519C21.6879 19.981 23.1473 19.8693 24.5215 19.4258C25.8955 18.9824 27.1448 18.2198 28.1675 17.2006C29.1901 16.1814 29.9567 14.9345 30.4047 13.562C30.8527 12.1894 30.9693 10.7304 30.7451 9.30411C30.5206 7.87787 29.9617 6.52503 29.114 5.35636C28.2662 4.18768 27.1537 3.23639 25.8676 2.58036C24.5814 1.92434 23.1583 1.58222 21.7144 1.58203Z" fill="white"/>
<path fill-rule="evenodd" clip-rule="evenodd" d="M3.42829 1.58203H19.4283C19.6938 1.58203 19.9488 1.62732 20.1859 1.71059C18.328 2.02554 16.5991 2.9098 15.249 4.25991C13.5344 5.97453 12.5711 8.30004 12.5711 10.7249C12.5777 11.9648 12.8262 13.1915 13.3026 14.3363L11.4283 18.7249L16.3197 18.1077C17.4856 18.9594 18.8365 19.5228 20.262 19.7519C20.7437 19.8293 21.2292 19.8678 21.714 19.8677V29.0106C21.714 30.273 20.6907 31.2963 19.4283 31.2963H3.42829C2.16593 31.2963 1.14258 30.273 1.14258 29.0106V3.86775C1.14258 2.60538 2.16593 1.58203 3.42829 1.58203Z" fill="#E6F5FB"/>
<path d="M21.7148 6.15234V9.58092" stroke="#009CD9" stroke-width="2" stroke-linecap="round" stroke-linejoin="round"/>
<path d="M21.714 14.7249C21.3984 14.7249 21.1426 14.469 21.1426 14.1535C21.1426 13.8379 21.3984 13.582 21.714 13.582" stroke="#009CD9" stroke-width="2" stroke-linecap="round" stroke-linejoin="round"/>
<path d="M21.7148 14.7249C22.0304 14.7249 22.2863 14.469 22.2863 14.1535C22.2863 13.8379 22.0304 13.582 21.7148 13.582" stroke="#009CD9" stroke-width="2" stroke-linecap="round" stroke-linejoin="round"/>
<path d="M21.7144 1.58203C19.2896 1.58203 16.9641 2.54529 15.2494 4.25991C13.5348 5.97453 12.5716 8.30004 12.5716 10.7249C12.5782 11.9648 12.8266 13.1915 13.303 14.3363L11.4287 18.7249L16.3201 18.1077C17.486 18.9594 18.837 19.5228 20.2624 19.7519C21.6879 19.981 23.1473 19.8693 24.5215 19.4258C25.8955 18.9824 27.1448 18.2198 28.1675 17.2006C29.1901 16.1814 29.9567 14.9345 30.4047 13.562C30.8527 12.1894 30.9693 10.7304 30.7451 9.30411C30.5206 7.87787 29.9617 6.52503 29.114 5.35636C28.2662 4.18768 27.1537 3.23639 25.8676 2.58036C24.5814 1.92434 23.1583 1.58222 21.7144 1.58203Z" stroke="#009CD9" stroke-width="2" stroke-linecap="round" stroke-linejoin="round"/>
<path d="M11.4283 1.58203H3.42829C2.16593 1.58203 1.14258 2.60538 1.14258 3.86775V29.0106C1.14258 30.273 2.16593 31.2963 3.42829 31.2963H19.4283C20.6906 31.2963 21.714 30.273 21.714 29.0106V24.4392" stroke="#009CD9" stroke-width="2" stroke-linecap="round" stroke-linejoin="round"/>
<path d="M10.2852 25.582H12.5709" stroke="#009CD9" stroke-width="2" stroke-linecap="round" stroke-linejoin="round"/>
</g>
<defs>
<clipPath id="clip0_317_7093">
<rect width="32" height="32" fill="white" transform="translate(0 0.4375)"/>
</clipPath>
</defs>
</svg>

<svg width="32" height="33" fill="none" xmlns="http://www.w3.org/2000/svg"><g clip-path="url(#clip0_317_7093)"><path d="M21.714 1.582a9.143 9.143 0 00-9.142 9.143 9.532 9.532 0 00.731 3.611l-1.874 4.389 4.891-.617a9.143 9.143 0 105.394-16.526z" fill="#fff"/><path fill-rule="evenodd" clip-rule="evenodd" d="M3.428 1.582h16c.266 0 .52.045.758.129a9.143 9.143 0 00-7.615 9.014 9.532 9.532 0 00.732 3.611l-1.875 4.389 4.892-.617a9.142 9.142 0 005.394 1.76v9.143a2.286 2.286 0 01-2.286 2.285h-16a2.286 2.286 0 01-2.285-2.285V3.868a2.286 2.286 0 012.285-2.286z" fill="#E6F5FB"/><path d="M21.715 6.152v3.429m-.001 5.144a.571.571 0 010-1.143m.001 1.143a.572.572 0 000-1.143" stroke="#009CD9" stroke-width="2" stroke-linecap="round" stroke-linejoin="round"/><path d="M21.714 1.582a9.143 9.143 0 00-9.142 9.143 9.532 9.532 0 00.731 3.611l-1.874 4.389 4.891-.617a9.143 9.143 0 105.394-16.526z" stroke="#009CD9" stroke-width="2" stroke-linecap="round" stroke-linejoin="round"/><path d="M11.428 1.582h-8a2.286 2.286 0 00-2.285 2.286V29.01a2.286 2.286 0 002.285 2.285h16a2.286 2.286 0 002.286-2.285v-4.572m-11.429 1.144h2.286" stroke="#009CD9" stroke-width="2" stroke-linecap="round" stroke-linejoin="round"/></g><defs><clipPath id="clip0_317_7093"><path fill="#fff" transform="translate(0 .438)" d="M0 0h32v32H0z"/></clipPath></defs></svg>
